world_stage/static/flags/BEN/square.svg

<svg height="2000" viewBox="0 0 2000 2000.0001" width="2000" xmlns="http://www.w3.org/2000/svg"><g transform="matrix(1.3333333 0 0 -2 0 2000)"><path d="m0 0h1500v1000h-1500z" fill="#fcd116"/><path d="m0 0h1500v500h-1500z" fill="#e8112d"/><path d="m0 0h600v1000h-600z" fill="#008751"/></g></svg>

<?xml version="1.0" encoding="UTF-8" standalone="no"?>
<svg
   height="2000"
   viewBox="0 0 2000 2000.0001"
   width="2000"
   version="1.1"
   id="svg3"
   sodipodi:docname="rect copy.svg"
   inkscape:version="1.4 (e7c3feb1, 2024-10-09)"
   xmlns:inkscape="http://www.inkscape.org/namespaces/inkscape"
   xmlns:sodipodi="http://sodipodi.sourceforge.net/DTD/sodipodi-0.dtd"
   xmlns="http://www.w3.org/2000/svg"
   xmlns:svg="http://www.w3.org/2000/svg">
  <defs
     id="defs3" />
  <sodipodi:namedview
     id="namedview3"
     pagecolor="#ffffff"
     bordercolor="#000000"
     borderopacity="0.25"
     inkscape:showpageshadow="2"
     inkscape:pageopacity="0.0"
     inkscape:pagecheckerboard="0"
     inkscape:deskcolor="#d1d1d1"
     inkscape:current-layer="svg3" />
  <g
     transform="matrix(1.3333333,0,0,-2,0,2000)"
     id="g3">
    <path
       d="M 0,0 H 1500 V 1000 H 0 Z"
       fill="#fcd116"
       id="path1" />
    <path
       d="M 0,0 H 1500 V 500 H 0 Z"
       fill="#e8112d"
       id="path2" />
    <path
       d="M 0,0 H 600 V 1000 H 0 Z"
       fill="#008751"
       id="path3" />
  </g>
</svg>
